X: 727
T: Ey Su Yolu Su Yolu
C: Muzaffer Sarısözen
O: Turkey
F: http://compmusic.upf.edu/node/140
N: segah--turku--aksak--ey_su--usak
N: makam= segah
N: form= turku
N: usul= aksak = 9/8
M: 9/8
L: 1/16
K: C _1/4B _1/4e ^f 
Q: 1/4=162
%%MIDI tuningsystem comma53
deee edg2 ddcB B2B2 B2 | de eeed g2dd cBB2 B2B2  | 
w:   |   | 
fg2g gfg2 fgaf g2g2 g2 | fg2ggf g2fg afg2 g2g2  | 
w:   |   | 
deee edg2 ddcB B2B2 (3Bc^c | de eeed g2dd cBB2 B2(3Bc^c  | 
w:   |   | 
d4 B3c d2d6 a2 | g2 gfe2 g2f3ed2 {e}dcB2  | \
w:  *  Ey  su  yo lu   |  su  yo *  *  *  lu  *  e *  dâ *  lım   | 
B4 g3g g4 f2e2 dc | 
w:  hey   Boş  gi der  ge  | 
de f4 edd4.e.c .d.B.c.^A  | d4 B3c d2d6 a2 | \
w:  lir  *  do *  *  lu   SAZ  |  *  Ey  su  yo lu   | 
g2 gfe2 g2f3ed2 {e}dcB2  | 
w:  su  yo *  *  *  lu  *  e *  dâ *  lım   | 
B4 g3g g4 f2e2 dc | de f4 edd4.f.d .e.c.B.c  | \
w:  hey   Boş  gi der  ge  |  lir  *  do *  *  lu   SAZ  | 
d4 B2{c}Bc d2d6 a2 | 
w:  *  Des *  ti  de  kul pun   | 
g2 gfe2 g2f3ed2 {e}dcB2  | B4 gg3 f2e2 d2c2 BA | \
w:  kı rıl *  *  *  sın  *  e *  dâ *  lım   |  hey   Yo rul du  *  yâ  | 
A2 AGc2 cBB8-B2  | 
w:  rin  ko *  *  *  *  lu    | 
d4 B2{c}Bc d2d6 a2 | g2 gfe2 g2f3ed2 {e}dcB2  | \
w:  *  Des *  ti  de  kul pun   |  kı rıl *  *  *  sın  *  e *  dâ *  lım   | 
B4 gg3 f2e2 d2c2 BA | 
w:  hey   Yo rul du  *  yâ  | 
A2 AGc2 cBB8-B2  | deee edg2 ddcB B2B2 B2 | 
w:  rin  ko *  *  *  *  lu    |   | 
de eeed g2dd cBB2 B2B2  | fg2g gfg2 fgaf g2g2 g2 | 
w:   |   | 
fg2ggf g2fg afg2 g2g2  | deee edg2 ddcB B2B2 (3Bc^c | 
w:   |   | 
de eeed g2dd cBB2 B2(3Bc^c  | d4 Bc3 d2d6 a2 | 
w:   |  *  Gü yer  bos ta  | 
g2 gfe2 g2f3ed2 {e}dcB2  | B4 gg3 g4 f2e2 dc | \
w:  nım  gü *  *  *  yer  *  e *  dâ *  lım   |  hey   Su  ge lir  ben  | 
de f4 edd4.e.c .d.B.c.^A  | 
w:  di  *  dö *  *  ğer   SAZ  | 
d4 Bc3 d2d6 a2 | g2 gfe2 g2f3ed2 {e}dcB2  | \
w:  *  Gü yer  bos ta  |  nım  gü *  *  *  yer  *  e *  dâ *  lım   | 
B4 gg3 g4 f2e2 dc | 
w:  hey   Su  ge lir  ben  | 
de f4 edd4.f.d .e.c.B.c  | d4 B2Bc d2d6 a2 | \
w:  di  *  dö *  *  ğer   SAZ  |  *  Hem  ök *  sü züm   | 
g2 gfe2 g2f3ed2 {e}dcB2  | 
w:  hem  ye *  *  *  tim  *  e *  dâ *  lım   | 
B4 g3g f2e2 d2c2 BA | A2 AGc2 cBB8-B2  | \
w:  hey   Her  ge len  *  be  |  ni  dö *  *  *  *  ver    | 
d4 B2Bc d2d6 a2 | 
w:  *  Hem  ök *  sü züm   | 
g2 gfe2 g2f3ed2 {e}dcB2  | B4 g3g f2e2 d2c2 BA | \
w:  hem  ye *  *  *  tim  *  e *  dâ *  lım   |  hey   Her  ge len  *  be  | 
A2 AGc2 cBB8-B2  | 
w:  ni  dö *  *  *  *  ver    | 
deee edg2 ddcB B2B2 B2 | de eeed g2dd cBB2 B2B2  | 
w:   |   | 
fg2g gfg2 fgaf g2g2 g2 | fg2ggf g2fg afg2 g2g2  | 
w:   |   | 
deee edg2 ddcB B2B2 (3Bc^c | de eeed g2dd cBB2 B2(3Bc^c  | 
w:   |   | 
d4 Bc3 d2d6 a2 | g2 gfe2 g2f3ed2 {e}dcB2  | \
w:  *  De ğir me nin   |  ben di *  *  *  ne  *  e *  dâ *  lım   | 
B4 gg3 g4 f2e2 dc | 
w:  hey   Dö ner  ken di   | 
de f4 edd4.e.c .d.B.c.^A  | d4 Bc3 d2d6 a2 | \
w:  ken *  di *  *  ne   SAZ  |  *  De ğir me nin   | 
g2 gfe2 g2f3ed2 {e}dcB2  | 
w:  ben di *  *  *  ne  *  e *  dâ *  lım   | 
B4 gg3 g4 f2e2 dc | de f4 edd4.f.d .e.c.B.c  | \
w:  hey   Dö ner  ken di   |  ken *  di  *  *  ne   SAZ  | 
d4 B2Bc d2d2 d4 a2 | 
w:  *  De ğir *  men de   | 
g2 gfe2 g2f3ed2 dcB2  | B4 g3g f2e2 d2c2 BA | \
w:  üç  kız  *  *  *  var  *  e dâ *  lım   |  hey   En  gü ze *  li   | 
A2 AGc2 cBB8-B2  | 
w:  ken di *  *  *  *  me    | 
d4 B2Bc d2d2 d4 a2 | g2 gfe2 g2f3ed2 dcB2  | \
w:  *  De ğir *  men de   |  üç  kız  *  *  *  var  *  e dâ *  lım   | 
B4 g3g f2e2 d2c2 BA | 
w:  hey   En  gü ze *  li   | 
A2 AGc2 cBB8-B2  | |


